!!!!SEGMENT: pl-sa--143-a-iii-43--002_anonim--missa-gregoriano-canto-et-in-terra.krn
!!!cenid: 18xx:1287
!!!COM: Anonim
!!!COM-rismID: pe30004985
!!!CDT:
!!!CNT:
!!!OPR: Missa Gregoriano Canto
!!!OTL: Et in terra
!!!OMV: 002
!!!PDT: 1815
!!!AGN: Sacred; Mass
!!!SMS-siglum: PL-SA
!!!SMS-shelfmark: 143/A III 43
!!!SMS-shelfwork: 001-002 M
!!!SMS-variant:
!!!SMS-altvar:
!!!NIFC-rismSourceID: 1001035509
!!!NIFC-rismChildID: 1001035509
!!!NIFC-islandoraID:
!!!URL-pdf-islandora:
!!!URL-scan: https://bc.bdsandomierz.pl/dlibra/publication/1500/edition/1468/content @EN{Scan in the Sandomierz Diocese Digital Library} @PL{Skany w portalu Cyfrowa Biblioteka Diecezjalna w Sandomierzu}
!!!ONB-nifc: UWAGA: części Mszy: 1. Kyrie, 2. Et in terra, 3. Patrem,. 4. Et incarnatus, 5. Et resurrexit, 6. Sanctus, 7. Benedictus, 8. Agnus Dei
!!!AIN: 1 organ 2 soprn
!!!key: F
**kern	**kern	**kern	**text	**kern	**text
*part3	*part3	*part2	*part2	*part1	*part1
*staff4	*staff3	*staff2	*staff2	*staff1	*staff1
*I"Organo.	*I"Organo.	*I"Canto 2do.	*	*I"[Canto 1]	*
*I'org	*I'org	*I'S 2	*	*I'S 1	*
*Iorgan	*Iorgan	*Isoprn	*	*Isoprn	*
*ICklav	*ICklav	*ICvox	*	*ICvox	*
*clefF4	*clefC1	*clefC1	*	*clefC1	*
*k[b-]	*k[b-]	*k[b-]	*	*k[b-]	*
*F:	*F:	*F:	*	*F:	*
*M2/2	*M2/2	*M2/2	*	*M2/2	*
*met(C.|r)	*met(C.|r)	*met(C.|r)	*	*met(C.|r)	*
=1	=1	=1	=1	=1	=1
4F\	4f/	4f/	Et	4f/	Et
4r	4g/	4e/	in	4g/	in
2r	4a/	4f/	ter-	4a/	ter-
.	4b-/	4g/	-ra	4b-/	-ra
=2	=2	=2	=2	=2	=2
4r	1cc	1a	pax	1cc	pax
4F\	.	.	.	.	.
4A\	.	.	.	.	.
4F\	.	.	.	.	.
=3	=3	=3	=3	=3	=3
4F\	4cc\	4a\	et	4cc\	et
4A\	4a\	4f\	in	4a\	in
4G\	4b-\	4g\	ter-	4b-\	ter-
4E\	4g\	4e/	-ra	4g\	-ra
=4	=4	=4	=4	=4	=4
4F\	1a	1f	pax	1a	pax
4C/	.	.	.	.	.
4AA/	.	.	.	.	.
4FF/	.	.	.	.	.
=5	=5	=5	=5	=5	=5
*	*^	*	*	*	*
4C/	4g/	4e\	4e/	bo-	4g/	bo-
4E/	4g/	4e\	4e/	-ne	4g/	-ne
!	!	!	!LO:LB:g=original	!	!LO:LB:g=original	!
4C/	4g/	4e\	4e/	vo-	4g/	vo-
4E/	4a/	4f\	4f/	-lun-	4a/	-lun-
=6	=6	=6	=6	=6	=6	=6
*	*2\right	*	*2\right	*	*2\right	*
4C/	2b-/	2g\	2g\	-ta-	2b-\	-ta-
4E/	.	.	.	.	.	.
4C/	2g/	2e\	2e/	-tis	2g\	-tis
4E/	.	.	.	.	.	.
=7	=7	=7	=7	=7	=7	=7
4C/	4a/	4f\	4f/	bo-	4a\	bo-
4F/	4a/	4f\	4f/	-ne	4a\	-ne
4C/	4a/	4f\	4f/	vo-	4a\	vo-
4F/	4b-/	4g\	4g/	-lun-	4b-\	-lun-
=8	=8	=8	=8	=8	=8	=8
4C/	2cc/	2a\	2a\	-ta-	2cc\	-ta-
4F/	.	.	.	.	.	.
4C/	2a/	2f\	2f/	-tis	2a\	-tis
4F/	.	.	.	.	.	.
*	*v	*v	*	*	*	*
=9	=9	=9	=9	=9	=9
*2\right	*	*	*	*	*
2F\	2cc/	2a\	lau-	2cc\	Lau-
4F\	4cc/	4a\	-da-	4cc\	-da-
4F\	4cc/	4a\	-mus	4cc\	-mus
=10	=10	=10	=10	=10	=10
4r	1a	1f	te	1a	te
4c\	.	.	.	.	.
4A\	.	.	.	.	.
4F\	.	.	.	.	.
=11	=11	=11	=11	=11	=11
*	*^	*	*	*	*
2E\	4b-/	4g\	4g\	be-	4b-\	be-
.	4b-/	4g\	4g\	-ne-	4b-\	-ne-
!LO:PB:g=original	!LO:PB:g=original	!	!	!	!	!
2E\	4b-\	2ryy	4g\	-di-	4b-\	-di-
.	8b-\	.	8g\	-ci-	8b-\	-ci-
.	8b-\	.	8g\	-mus	8b-\	-mus
*	*v	*v	*	*	*	*
=12	=12	=12	=12	=12	=12
4r	1g	1e	te	1g	te
4G\	.	.	.	.	.
4E\	.	.	.	.	.
4C\	.	.	.	.	.
=13	=13	=13	=13	=13	=13
*	*^	*	*	*	*
4F\	4a/	4f\	4f/	a-	4a\	a-
4r	4g/	4e\	4e/	-do-	4g\	-do-
4E\	4cc/	4a\	4a/	-ra-	4cc\	-ra-
4r	4b-/	4g\	4g/	-mus	4b-\	-mus
=14	=14	=14	=14	=14	=14	=14
4F\	1a	1f	1f	te	1a	te
4A\	.	.	.	.	.	.
4c\	.	.	.	.	.	.
4A\	.	.	.	.	.	.
=15	=15	=15	=15	=15	=15	=15
4F\	2cc/	2a\	2a\	glo-	2cc\	glo-
4F\	.	.	.	.	.	.
4F\	4a/	4f\	4f/	-ri-	4a\	-ri-
4F\	4cc/	4a\	4a/	-fi-	4cc\	-fi-
=16	=16	=16	=16	=16	=16	=16
4r	4b-/	4g\	4g/	-ca-	4b-\	-ca-
4C/	4g/	4e\	4e/	-mus	4g\	-mus
2F\	2a/	2f\	2f/	te	2a\	te
*	*v	*v	*	*	*	*
=17	=17	=17	=17	=17	=17
4F\	2a/	2f/	glo-	2a\	glo-
4F\	.	.	.	.	.
4F\	4f/	4f/	-ri-	4f/	-ri-
4F\	4a/	4f/	-fi-	4a/	-fi-
!	!	!	!	!LO:LB:g=original	!
=18	=18	=18	=18	=18	=18
4r	4g/	4e/	-ca-	4g/	-ca-
4C/	4e/	4e/	-mus	4e/	-mus
2F\	2f/	2f/	te	2f/	te
!	!	!LO:LB:g=original	!	!	!
=19||	=19||	=19||	=19||	=19||	=19||
2F\	2f/	2f/	Do-	2f/	Do-
2r	4a\	4f/	-mi-	4a/	-mi-
.	4cc\	4a/	-ne	4cc/	-ne
=20	=20	=20	=20	=20	=20
4r	2b-\	2g/	De-	2b-\	De-
4C/	.	.	.	.	.
4E/	2g\	2e/	-us	2g\	-us
4G/	.	.	.	.	.
!LO:LB:g=original	!LO:LB:g=original	!	!	!	!
=21	=21	=21	=21	=21	=21
*	*^	*	*	*	*
2F\	4a/	4f\	4f/	Rex	4a\	Rex
.	4f/	4d\	4f/	.	4f\	.
2r	4cc/	4a\	4a/	.	4cc\	.
.	4a/	4f\	4f/	Cae-	4a\	Cae-
*	*v	*v	*	*	*	*
=22	=22	=22	=22	=22	=22
4r	2a\	2f/	-les-	2a\	-les-
4c\	.	.	.	.	.
2C/	2g\	2e/	-tis	2g\	-tis
=23	=23	=23	=23	=23	=23
4G\	4bn\	4d/	De-	4bn\	De-
4G\	4b\	4d/	-us	4b\	-us
4Bn\	2b\	2d/	Pa-	2b\	Pa-
4G\	.	.	.	.	.
=24	=24	=24	=24	=24	=24
4c\	2cc\	2e/	-ter	2cc\	-ter
4G\	.	.	.	.	.
4E\	2r	2r	.	2r	.
4C\	.	.	.	.	.
=25	=25	=25	=25	=25	=25
4r	4dd\	4bn\	om-	4dd\	om-
4G\	4dd\	4b\	-ni-	4dd\	-ni-
4A\	2dd\	2b\	-po-	2dd\	-po-
4Bn\	.	.	.	.	.
=26	=26	=26	=26	=26	=26
4c\	2ee\	2cc\	-tens	2ee\	-tens
4C/	.	.	.	.	.
8c\L	2r	2r	.	2r	.
8B-X\	.	.	.	.	.
8A\	.	.	.	.	.
8G\J	.	.	.	.	.
=27	=27	=27	=27	=27	=27
4F\	2cc\	2a\	Do-	2cc\	Do-
4F\	.	.	.	.	.
4F\	4ff\	4a\	-mi-	4ff\	-mi-
4F\	4cc\	4a\	-ne	4cc\	-ne
=28	=28	=28	=28	=28	=28
*	*^	*	*	*	*
4F\	4cc/	4a\	4a\	Fil-	4cc\	Fil-
4F\	4b-/	4g\	4g\	.	4b-\	.
4F\	2a/	2f\	2f/	-li	2a\	-li
4F\	.	.	.	.	.	.
=29	=29	=29	=29	=29	=29	=29
2E\	4b-/	4g\	4g/	u-	4b-\	u-
.	4b-/	4g\	4g/	-ni-	4b-\	-ni-
2r	4b-/	4g\	4g/	-ge-	4b-\	-ge-
.	4a/	4f\	4f/	-ni-	4a\	-ni-
=30	=30	=30	=30	=30	=30	=30
4r	2g/	2e\	2e/	-te	2g/	-te
4C/	.	.	.	.	.	.
4E/	2r	2r	2r	.	2r	.
4C/	.	.	.	.	.	.
*	*v	*v	*	*	*	*
!LO:LB:g=original	!LO:LB:g=original	!	!	!	!
=31	=31	=31	=31	=31	=31
!	!	!LO:TX:a:t=1	!	!	!
2F\	2f/	1r	.	2f/	Je-
2r	4e/	.	.	4e/	.
.	4g/	.	.	4g/	-su
!	!	!	!	!LO:LB:g=original	!
=32	=32	=32	=32	=32	=32
2F\	2a\	2f/	Je-	2a\	Je-
2r	4g/	4e/	.	4g\	.
.	4b-/	4g/	-su	4b-\	-su
!	!	!LO:LB:g=original	!	!	!
=33	=33	=33	=33	=33	=33
4F\	4a/	4f/	Je-	4a/	Je-
4A\	4f/	4f/	-su	4f/	-su
4c\	2g/	2e/	chri-	2g/	Chri-
4C/	.	.	.	.	.
=34	=34	=34	=34	=34	=34
2F\	2f/	2f/	-ste	2f/	-ste
2r	2r	2r	.	2r	.
=35||	=35||	=35||	=35||	=35||	=35||
*	*^	*	*	*	*
4F\	4cc/	4a\	4a\	Quo-	4cc\	Quo-
4F\	4cc/	4a\	4a\	-ni-	4cc\	-ni-
4F\	4cc/	4a\	4a\	-am	4cc\	-am
4F\	4cc/	4a\	4a\	tu	4cc\	tu
=36	=36	=36	=36	=36	=36	=36
2F\	2cc/	2a\	2a\	so-	2cc\	so-
2F\	2a/	2f\	2f/	-lus	2a\	-lus
=37	=37	=37	=37	=37	=37	=37
2G\	4b-/	4g\	4g/	tu	4b-\	tu
.	4cc/	4a\	4a/	.	4cc\	.
2r	4dd/	4b-\	4b-/	so-	4dd\	so-
.	4cc/	4a\	4a/	-lus	4cc\	-lus
=38	=38	=38	=38	=38	=38	=38
4r	2b-/	2g\	2g/	San-	2b-\	San-
4C/	.	.	.	.	.	.
4E/	2g/	2e\	2e/	-ctus	2g\	-ctus
4G/	.	.	.	.	.	.
=39	=39	=39	=39	=39	=39	=39
4E\	4b-/	4g\	4g/	Quo-	4b-\	quo-
4E\	4b-/	4g\	4g/	-ni-	4b-\	-ni-
4E\	4b-/	4g\	4g/	-am	4b-\	-am
4E\	4b-/	4g\	4g/	tu	4b-\	tu
=40	=40	=40	=40	=40	=40	=40
2E\	2b-/	2g\	2g/	So-	2b-\	So-
2C/	2g/	2e\	2e/	-lus	2g\	-lus
!LO:LB:g=original	!LO:LB:g=original	!	!	!	!	!
=41	=41	=41	=41	=41	=41	=41
4F\	4a/	4f\	4f/	tu	4a\	tu
!	!	!	!LO:SIC:v:s=4g/	!	!LO:TX:t=P:problem=♭ above	!
4F\	4b-/	4g\	4a/	.	4b-X\	.
4F\	4cc/	4a\	4a/	So-	4cc\	so-
4F\	4b-/	4g\	4g/	-lus	4b-\	-lus
*	*v	*v	*	*	*	*
=42	=42	=42	=42	=42	=42
2F\	4.a/	4.f/	Do-	4.a\	Do-
.	8g/	8e/	-mi-	8g\	-mi-
2r	2f/	2f/	-nus	2f/	-nus
=43	=43	=43	=43	=43	=43
4r	2a\	2f/	tu	2a\	tu
4F\	.	.	.	.	.
4E\	4g\	4e/	So-	4g\	so-
4C\	4b-\	4g/	-lus	4b-\	-lus
=44	=44	=44	=44	=44	=44
*	*^	*	*	*	*
4r	2a\	2ryy	2f/	al-	2a\	al-
4F\	.	.	.	.	.	.
4E\	8g\L	4ryy	8e/L	-tiſ-	8g\L	-tiſ-
.	8a\J	.	8f/J	-si-	8a\J	-si-
!	!	!	!	!	!LO:TX:b:t=vertatur	!
4C/	4b-/	4g\	4g/	-mus	4b-\	-mus
!	!	!	!LO:PB:g=original	!	!LO:PB:g=original	!
=45	=45	=45	=45	=45	=45	=45
2A\	4a/	4f\	4f/	Je-	4a\	Je-
.	4cc/	4a\	4a/	.	4cc\	.
2B-\	4dd/	4b-\	4b-/	.	4dd\	.
.	4b-/	4g\	4g/	-su	4b-\	-su
=46	=46	=46	=46	=46	=46	=46
2c\	2a/	2f\	2f/	chri-	2a\	Chri-
2C/	2g/	2e\	2e/	.	2g\	.
*	*v	*v	*	*	*	*
=47	=47	=47	=47	=47	=47
1F;	1a 1f 1c;	1f	-ste	1f	-ste
==	==	==	==	==	==
*-	*-	*-	*-	*-	*-
!!!system-decoration: [(s1,s2)]{s3,s4}
!!!ENC: Kamil Watkowski
!!!END: 2020-12-07
!!!ENC: Andrzej Kubiczek
!!!END: 2022-03-27
!!!YEC: Copyright 2022 Narodowy Instytut Fryderyka Chopina (https://polishscores.org)
!!!YEM: License CC-BY-4.0 (https://creativecommons.org/licenses/by/4.0)
